!!!COM: Beethoven
!!!OTL: 24 Variationen uber Venni Amore von V. Righini
!!!Variation: Theme a
**kern
*clefG2
*k[f#c#]
*M2/4
*D:
=1
8ff#
8r
8ee
8r
=2
4dd
8.r
16cc#
=3
8b
8r
8b
8r
=4
8a
8r
4r
=5
8f#
8r
(4f#
=6
8g)
8r
(4g
=7
8f#)
8r
4f#
=8
4e
4r
=9
8e
8r
8a
8r
=10
8f#
8r
8dd
8r
=11
8ee
8r
8a
8r
=12
8dd
8r
8d
8r
=13
8e
8r
8a
8r
=14
8f#
8r
8dd
8r
=15
4a
16g#LL
16a
16b
16aJJ
=16
4d
4r
*-

